X:1
T:Title
%%score { ( 1 3 ) | ( 2 4 5 ) }
L:1/8
Q:1/4=100
M:4/4
K:C
V:1 treble nm="Grand Piano"
V:3 treble 
V:2 bass 
V:4 bass 
V:5 bass 
V:1
 E>_E =E>_E =E2 [DF]2 | z c3- c4 | [CAc]>[C^GB] [CAc]>[CGB] [CAc]2 [CFA]2 | [EG]6 z2 | %4
w: C.~Austin~Miles * * * * *||||
 E>_E =E>^F ^G2 B2 | z A3- A4 | [^Fc]>[FB] [Fc]>[FB] [Fc]2 [Fe]2 |[M:3/4] [Fd]6 |[M:1/4] z2 | %9
w: |||||
[M:4/4] z2 [Ge]2 [Fd]2 z2 | z2 [Ge]2 [Ec]2 [EG]>[E^G] | A>^G A>B d>c B>A | %12
w: |||
 [CEG]2 [G,CE]2 [CEG]2 z2 | z2 [Ge]2 [Fd]2 z2 | z2 [Ge]2 [Ec]2 [CEG]>[CE^G] | %15
w: |||
[M:5/4] [CFA]>[CGB] [CAc]>[Ad] [Ge]3 [Gd]3 |[M:5/8] c-c- c3 |] %17
w: ||
V:2
 [C,G,C]>[C,^F,C] [C,G,C]>[C,F,C] [C,G,C]2 [C,G,]2 | z E3- E4 | F,>F, F,>F, F,2 F,2 | %3
 z2 G,2 A,2 z2 | [E,^G,D]>[E,=G,] [E,^G,_E]>[E,A,E] [E,B,E]2 [E,G,E]2 | z C3 z4 | %6
 [D,A,]>[D,^G,] [D,A,]>[D,G,] [D,A,]2 [D,C]2 |[M:3/4] [G,B,]6 |[M:1/4] G,>^F, |[M:4/4] F,6 z2 | %10
 C6 z2 | [F,CF]>[F,B,F] [F,CF]>[F,B,F] [F,A,F]>[F,A,F] [F,B,F]>[F,CF] | C,2 C,2 C,2 G,>E, | %13
 F,6 z2 | C6 z2 |[M:5/4] F,>F, F,>[F,C] [G,C]3 [G,B,]3 |[M:5/8] z2 A,2 G, |] %17
V:3
 x8 | .[EG]2 G,2 G,2 C2 | x8 | C2 z2 z2 G,2 | x8 | .[Ed]2 A,2 C4 | x8 |[M:3/4] x6 |[M:1/4] x2 | %9
[M:4/4] x8 | x8 | x8 | x8 | x8 | x8 |[M:5/4] x10 |[M:5/8] [CE]2 F2 E |] %17
V:4
 x8 | [C,G,]2 z2 z4 | x8 | C,6 z2 | x8 | z2 A,,2 A,2 A,2 | x8 |[M:3/4] x6 |[M:1/4] x2 | %9
[M:4/4] z2 G,,2 G,,2 A,>G, | z2 C,2 C,2 [C,C]>[C,C] | x8 | x8 | z2 G,,2 G,,2 A,>G, | %14
 z2 C,2 C,2 C,>C, |[M:5/4] x10 |[M:5/8] C,-C,- C,3 |] %17
V:5
 x8 | z2 C,2 C,2 C,2 | x8 | x8 | x8 | [A,,A,]2 z2 z4 | x8 |[M:3/4] x6 |[M:1/4] x2 |[M:4/4] x8 | %10
 x8 | x8 | x8 | x8 | x8 |[M:5/4] x10 |[M:5/8] x5 |] %17

